src/assets/icons/dynamic-zone.svg

<svg width="34" height="24" viewBox="0 0 34 24" fill="none" xmlns="http://www.w3.org/2000/svg">
<rect x="0.5" y="0.5" width="33" height="23" rx="2.5" fill="#F6F6F9" stroke="#DCDCE4"/>
<path d="M21.5726 7.58984C20.0894 7.58984 18.9067 8.33488 18.1758 8.96017L18.15 8.9823L17.7338 9.43484L18.6527 10.9449L19.3327 10.263C20.0444 9.66202 20.8388 9.33178 21.5726 9.33178C23.0532 9.33178 24.2581 10.504 24.2581 11.9447C24.2581 13.3854 23.0532 14.5576 21.5726 14.5576C19.3226 14.5576 17.7933 11.5836 17.7781 11.5535C17.6895 11.3746 15.7502 7.58984 12.4274 7.58984C9.98617 7.58984 8 9.54335 8 11.9447C8 14.346 9.98617 16.2995 12.4274 16.2995C13.6232 16.2995 14.8001 15.8238 15.8311 14.9234L15.8532 14.9038L16.2662 14.4545L15.347 12.9445L14.6636 13.6296C13.9516 14.2455 13.199 14.5576 12.4274 14.5576C10.9468 14.5576 9.74194 13.3854 9.74194 11.9447C9.74194 10.504 10.9468 9.33178 12.4274 9.33178C14.6774 9.33178 16.2067 12.3058 16.2219 12.3359C16.3105 12.5148 18.2498 16.2995 21.5726 16.2995C24.0138 16.2995 26 14.346 26 11.9447C26 9.54335 24.0138 7.58984 21.5726 7.58984Z" fill="#4A4A6A"/>
</svg>

<svg width="34" height="24" fill="none" xmlns="http://www.w3.org/2000/svg"><rect x=".5" y=".5" width="33" height="23" rx="2.5" fill="#F6F6F9" stroke="#DCDCE4"/><path d="M21.573 7.59c-1.484 0-2.666.745-3.397 1.37l-.026.022-.416.453.919 1.51.68-.682c.711-.601 1.506-.931 2.24-.931 1.48 0 2.685 1.172 2.685 2.613 0 1.44-1.205 2.613-2.685 2.613-2.25 0-3.78-2.974-3.795-3.005-.088-.178-2.028-3.963-5.35-3.963C9.985 7.59 8 9.543 8 11.945c0 2.401 1.986 4.354 4.427 4.354 1.196 0 2.373-.475 3.404-1.376l.022-.02.413-.449-.919-1.51-.683.686c-.712.615-1.465.928-2.237.928-1.48 0-2.685-1.173-2.685-2.613 0-1.441 1.205-2.613 2.685-2.613 2.25 0 3.78 2.974 3.795 3.004.088.179 2.028 3.963 5.35 3.963 2.442 0 4.428-1.953 4.428-4.354 0-2.402-1.986-4.355-4.427-4.355z" fill="#4A4A6A"/></svg>
